dist/landing-a/assets/images/ruflag.svg

<svg width="24" height="24" viewBox="0 0 24 24" fill="none" xmlns="http://www.w3.org/2000/svg">
<path d="M3 6V17.9997H20.9996V6H3Z" fill="white"/>
<path d="M3 6H20.9996V17.9999H3V6Z" fill="#0052B4"/>
<path d="M3 6H20.9996V9.99982H3V6Z" fill="white"/>
<path d="M3 14H20.9996V17.9998H3V14Z" fill="#D80027"/>
</svg>

<svg width="24" height="24" fill="none" xmlns="http://www.w3.org/2000/svg"><path d="M3 6v12h18V6H3z" fill="#fff"/><path d="M3 6h18v12H3V6z" fill="#0052B4"/><path d="M3 6h18v4H3V6z" fill="#fff"/><path d="M3 14h18v4H3v-4z" fill="#D80027"/></svg>
